X: 14958
T: Geese In The Bog, The
R: jig
M: 6/8
K: Aminor
c~E3 G~E3|c~E3 G2AB|c~E3 GEED|EAAG A2AB|
c~E3 G~E3|c~E3 EGAB|c2BA GEED|EAAG A3B:|
c2de geed|eaaf g2ed|c2de geed|eaag ~a3B|
c2de geed|eaaf gfed|c2BA GEED|EAAG A3B:|

